X:1
T:Colonel MacDougall of Dunolly's
M:C
L:1/8
Q:80
C:
S:Reel
K:HP
|: a | \
{cd}c2{g}A3/2{d}c/2{gef}e2{ag}a2 | \
{cd}c2{g}A3/2e/2{gde}d3/2B/2{g}G/2a3/2 | \
{cd}c2{g}A3/2{d}c/2{g}e2{gf}g2 |
{Gdc}d2{g}d3/2B/2{g}A3/2{d}A/2{e}A3/2a/2 :: \
c/2{d}A3/2{gef}e3/2A/2{g}B/2{d}G3/2{dc}d2 | \
c/2{d}A3/2{gef}e3/2A/2{gf}g2{fg}f3/2e/2 |
c/2{d}A3/2{gef}e3/2A/2{g}B/2{d}G3/2{g}B/2d3/2 | \
{gef}e2{g}d3/2B/2{g}A3/2{d}A/2{e}A3/2a/2 :|

